dist/assets/style/footer/img/facebook.svg

<svg width="26" height="26" viewBox="0 0 26 26" fill="none" xmlns="http://www.w3.org/2000/svg">
<path d="M19.4999 2.1665H16.2499C14.8133 2.1665 13.4356 2.73719 12.4198 3.75301C11.4039 4.76883 10.8333 6.14658 10.8333 7.58317V10.8332H7.58325V15.1665H10.8333V23.8332H15.1666V15.1665H18.4166L19.4999 10.8332H15.1666V7.58317C15.1666 7.29585 15.2807 7.0203 15.4839 6.81714C15.6871 6.61397 15.9626 6.49984 16.2499 6.49984H19.4999V2.1665Z" stroke="white" stroke-width="2" stroke-linecap="round" stroke-linejoin="round"/>
</svg>

<svg width="26" height="26" fill="none" xmlns="http://www.w3.org/2000/svg"><path d="M19.5 2.167h-3.25a5.416 5.416 0 0 0-5.417 5.416v3.25h-3.25v4.333h3.25v8.667h4.334v-8.666h3.25l1.083-4.334h-4.333v-3.25A1.083 1.083 0 0 1 16.25 6.5h3.25V2.167Z" stroke="#fff" stroke-width="2" stroke-linecap="round" stroke-linejoin="round"/></svg>
